X:72
T:Dorset Four Hand Reel
R:reel
S:Trad
M:4/4
L:1/8
K:G
D2|:G2B2d2 B2|c2e2c2e2|G2B2d2B2|c2A2A2 BA|
  |G2B2d2 B2|c2e2c2e2|G2B2d2B2|1cB A2G2 D2:|2cB A2G2 d2|
  |:g2g2 gf e2|d2d2 dc B2|A2AB c2d2 |e2d2d2 ef|
  |g2g2 gf e2|d2d2 dc B2|A2 AB c2A2|1 A2G2G2d2 :|2 A2G2G2D2 |
